_includes/icons/color-monarch-butterfly.svg

<svg fill="#666" height="50" viewBox="0 0 48 48" width="50" xmlns="http://www.w3.org/2000/svg"><g fill="#3e2723"><path d="m8 31.789c0-3.967 3.431-6.508 7.558-7.183 8.192-1.339 12.442-1.879 3.442 14.313-.848 1.177-2.044 1.079-2.904 1.079-5.096 0-8.096-4.242-8.096-8.209z"/><path d="m40 31.789c0-3.967-3.415-6.508-7.524-7.183-8.154-1.339-12.385-1.879-3.426 14.312.844 1.177 2.034 1.079 2.891 1.079 5.073.001 8.059-4.241 8.059-8.208z"/></g><g fill="#4e342e"><path d="m23 24.462s7.436-17.462 19.098-17.462c1.351 0 3.742 1.462-.508 7.191-1.667 2.247-1.167 1.075-1.859 7.191-.465 4.109-6.797 3.715-8.71 3.488-1.751-.208-3.502-.408-5.263-.408z"/><path d="m25 24.462s-7.436-17.462-19.098-17.462c-1.351 0-3.742 1.462.508 7.191 1.667 2.247 1.167 1.075 1.859 7.191.465 4.109 6.797 3.715 8.71 3.488 1.751-.208 3.502-.408 5.263-.408z"/></g><g fill="#ffb300"><path d="m37 9.727c0 .402.871 1.273 1.273 1.273s.727-.871.727-1.273c0-.401-.326-.727-.727-.727s-1.273.326-1.273.727z"/><path d="m35 10.857c0 .316.542 1.143.857 1.143.316 0 1.143-.684 1.143-1s-.827-1-1.143-1c-.315 0-.857.542-.857.857z"/><path d="m11 9.727c0 .402-.871 1.273-1.273 1.273-.401 0-.727-.871-.727-1.273 0-.401.326-.727.727-.727.402 0 1.273.326 1.273.727z"/><path d="m13 10.857c0 .316-.542 1.143-.857 1.143-.316 0-1.143-.684-1.143-1s.827-1 1.143-1c.315 0 .857.542.857.857z"/></g><g fill="#fb8c00"><path d="m21.01 25.01s-2.844 1.193-5.251.774c-2.792-.486-2.245 1.746 1.532 1.097 3.938-.678 3.719-1.871 3.719-1.871z"/><path d="m22.296 27.474c1.75 2.669-4.017 10.398-4.529 10.945-.513.547-2.028.766-2.516.245s-.193-1.774.5-2.001c3.249-1.068 6.258-9.626 6.545-9.189z"/><path d="m27 22s.619 2.722 6.434 1.815c5.815-.908-6.434-1.815-6.434-1.815z"/><path d="m27.049 25.01s2.831 1.193 5.227.774c2.779-.486 2.235 1.746-1.525 1.097-3.919-.678-3.702-1.871-3.702-1.871z"/><path d="m25.77 27.474c-1.742 2.669 3.999 10.398 4.509 10.945s2.019.766 2.505.245.192-1.774-.498-2.001c-3.236-1.068-6.231-9.626-6.516-9.189z"/><path d="m21 22s-.619 2.722-6.434 1.815c-5.815-.908 6.434-1.815 6.434-1.815z"/></g><g fill="#e65100"><path d="m34 17.25s2.942.735 3.556.735 1.444-.841 1.444-1.389-.831-.596-1.444-.596c-.614 0-3.556 1.25-3.556 1.25z"/><path d="m21.99 26.108c.306-.681-6.254 2.002-5.411 3.975.17.397.408.568-.817 1.363s-1.123 2.385 1.429 1.022 3.83-4.205 4.799-6.36z"/><path d="m15.004 30.084c.121.166-1.462 1.798-1.752 2.3-1.957 3.381-4.245.521-4.248-.05-.004-.959 2.609-.708 3-1.125s2.61-1.542 3-1.125z"/><path d="m17.917 33c.625 0-2.39 4.043-5.408 4.976-.606.188-1.509-.782-1.509-1.555s.884-1.555 1.509-1.555c3.019 0 4.779-1.866 5.408-1.866z"/><path d="m16 27.823c0 .482-1.647 1.455-2.695 1.455s-2.495 2.91-3.293 1.164c-.183-.401 1.796-4.075 2.595-3.347.888.809 3.393.245 3.393.728z"/><path d="m26.074 26.108c-.305-.681 6.226 2.002 5.387 3.975-.169.397-.407.568.813 1.363s1.118 2.385-1.423 1.022-3.812-4.205-4.777-6.36z"/><path d="m33.028 30.084c-.12.166 1.455 1.798 1.744 2.3 1.948 3.381 4.226.521 4.228-.05.004-.959-2.598-.708-2.986-1.125-.389-.417-2.597-1.542-2.986-1.125z"/><path d="m30.128 33c-.622 0 2.379 4.043 5.383 4.976.604.187 1.502-.782 1.502-1.555s-.88-1.555-1.502-1.555c-3.004 0-4.757-1.866-5.383-1.866z"/><path d="m32.037 27.823c0 .482 1.64 1.455 2.682 1.455s2.484 2.91 3.278 1.164c.183-.401-1.788-4.075-2.583-3.347-.884.809-3.377.245-3.377.728z"/><path d="m26 20s4.556-5.723 6.429-7.223c1.987-1.592 2.571-.245 2.571-.245s0 0-.234 2.081c-.163 1.457-3.255 2.467-8.766 5.387z"/><path d="m26 21.221 6.509-3.193s5.909-.48 5.467 2.555c-.13.894.13 1.277-3.124 1.405s-8.852-.767-8.852-.767z"/><path d="m36.594 12.809c-.385.603-1.219 2.816-1.219 2.816s2.58-.341 3.165-.759c.651-.465 1.97-1.174 1.224-2.1-.586-.728-2.478-1.04-3.17.043z"/><path d="m39 8.573c0 .362 1.944.409 2.533.409s1.467.116 1.467-.245-.878-.737-1.467-.737-2.533.211-2.533.573z"/><path d="m39 10.986c0 .726.566.986 1.263.986.698 0 1.737.233 1.737-.493s-1.039-1.479-1.737-1.479c-.697 0-1.263.26-1.263.986z"/><path d="m14 17.25s-2.942.735-3.556.735c-.613 0-1.444-.842-1.444-1.39s.831-.595 1.444-.595c.614 0 3.556 1.25 3.556 1.25z"/><path d="m22 20s-4.556-5.723-6.429-7.223c-1.987-1.592-2.571-.245-2.571-.245s0 0 .234 2.081c.163 1.457 3.255 2.467 8.766 5.387z"/><path d="m22 21.221-6.509-3.193s-5.909-.48-5.467 2.555c.13.894-.13 1.277 3.124 1.405s8.852-.767 8.852-.767z"/><path d="m11.406 12.809c.385.603 1.219 2.816 1.219 2.816s-2.58-.341-3.165-.759c-.651-.465-1.97-1.174-1.224-2.1.586-.728 2.478-1.04 3.17.043z"/><path d="m9 8.573c0 .362-1.944.409-2.533.409s-1.467.116-1.467-.245.878-.737 1.467-.737 2.533.211 2.533.573z"/><path d="m9 10.986c0 .726-.566.986-1.263.986s-1.737.232-1.737-.494 1.039-1.478 1.737-1.478 1.263.26 1.263.986z"/></g><path d="m26 22.831c0-.895-.602-1.992-1.146-2.801.091-.202.146-.436.146-.689 0-.741-.448-1.342-1-1.342s-1 .601-1 1.342c0 .253.055.487.146.689-.544.809-1.146 1.906-1.146 2.801 0 1.248.525 4.039 1.267 5.282-.166 2.916-.267 5.756-.267 5.991 0 .494.448.895 1 .895s1-.401 1-.895c0-.235-.101-3.075-.267-5.991.742-1.244 1.267-4.034 1.267-5.282z" fill="#212121"/></svg>

<svg xmlns="http://www.w3.org/2000/svg" viewBox="0 0 48 48" width="50" height="50" fill="#666"><g fill="#3e2723"><path d="M8,31.789c0-3.967,3.431-6.508,7.558-7.183C23.75,23.267,28,22.727,19,38.919 c-0.848,1.177-2.044,1.079-2.904,1.079C11,39.998,8,35.756,8,31.789z"/><path d="M40,31.789c0-3.967-3.415-6.508-7.524-7.183c-8.154-1.339-12.385-1.879-3.426,14.312 c0.844,1.177,2.034,1.079,2.891,1.079C37.014,39.998,40,35.756,40,31.789z"/></g><g fill="#4e342e"><path d="M23,24.462C23,24.462,30.436,7,42.098,7c1.351,0,3.742,1.462-0.508,7.191 c-1.667,2.247-1.167,1.075-1.859,7.191c-0.465,4.109-6.797,3.715-8.71,3.488c-1.751-0.208-3.502-0.408-5.263-0.408L23,24.462z"/><path d="M25,24.462C25,24.462,17.564,7,5.902,7C4.551,7,2.16,8.462,6.41,14.191 c1.667,2.247,1.167,1.075,1.859,7.191c0.465,4.109,6.797,3.715,8.71,3.488c1.751-0.208,3.502-0.408,5.263-0.408L25,24.462z"/></g><g fill="#ffb300"><path d="M37,9.727C37,10.129,37.871,11,38.273,11S39,10.129,39,9.727C39,9.326,38.674,9,38.273,9 S37,9.326,37,9.727z"/><path d="M35,10.857C35,11.173,35.542,12,35.857,12C36.173,12,37,11.316,37,11s-0.827-1-1.143-1 C35.542,10,35,10.542,35,10.857z"/><path d="M11,9.727C11,10.129,10.129,11,9.727,11C9.326,11,9,10.129,9,9.727C9,9.326,9.326,9,9.727,9 C10.129,9,11,9.326,11,9.727z"/><path d="M13,10.857C13,11.173,12.458,12,12.143,12C11.827,12,11,11.316,11,11s0.827-1,1.143-1 C12.458,10,13,10.542,13,10.857z"/></g><g fill="#fb8c00"><path d="M21.01,25.01c0,0-2.844,1.193-5.251,0.774c-2.792-0.486-2.245,1.746,1.532,1.097 C21.229,26.203,21.01,25.01,21.01,25.01z"/><path d="M22.296,27.474c1.75,2.669-4.017,10.398-4.529,10.945c-0.513,0.547-2.028,0.766-2.516,0.245 c-0.488-0.521-0.193-1.774,0.5-2.001C19,35.595,22.009,27.037,22.296,27.474z"/><path d="M27,22c0,0,0.619,2.722,6.434,1.815C39.249,22.907,27,22,27,22z"/><path d="M27.049,25.01c0,0,2.831,1.193,5.227,0.774c2.779-0.486,2.235,1.746-1.525,1.097 C26.832,26.203,27.049,25.01,27.049,25.01z"/><path d="M25.77,27.474c-1.742,2.669,3.999,10.398,4.509,10.945c0.51,0.547,2.019,0.766,2.505,0.245 c0.486-0.521,0.192-1.774-0.498-2.001C29.05,35.595,26.055,27.037,25.77,27.474z"/><path d="M21,22c0,0-0.619,2.722-6.434,1.815C8.751,22.907,21,22,21,22z"/></g><g fill="#e65100"><path d="M34,17.25c0,0,2.942,0.735,3.556,0.735c0.614,0,1.444-0.841,1.444-1.389S38.169,16,37.556,16 C36.942,16,34,17.25,34,17.25z"/><path d="M21.99,26.108c0.306-0.681-6.254,2.002-5.411,3.975c0.17,0.397,0.408,0.568-0.817,1.363 c-1.225,0.795-1.123,2.385,1.429,1.022S21.021,28.263,21.99,26.108z"/><path d="M15.004,30.084c0.121,0.166-1.462,1.798-1.752,2.3c-1.957,3.381-4.245,0.521-4.248-0.05 c-0.004-0.959,2.609-0.708,3-1.125C12.395,30.792,14.614,29.667,15.004,30.084z"/><path d="M17.917,33c0.625,0-2.39,4.043-5.408,4.976C11.903,38.164,11,37.194,11,36.421 s0.884-1.555,1.509-1.555C15.528,34.866,17.288,33,17.917,33z"/><path d="M16,27.823c0,0.482-1.647,1.455-2.695,1.455s-2.495,2.91-3.293,1.164 c-0.183-0.401,1.796-4.075,2.595-3.347C13.495,27.904,16,27.34,16,27.823z"/><path d="M26.074,26.108c-0.305-0.681,6.226,2.002,5.387,3.975c-0.169,0.397-0.407,0.568,0.813,1.363 c1.22,0.795,1.118,2.385-1.423,1.022C28.31,31.105,27.039,28.263,26.074,26.108z"/><path d="M33.028,30.084c-0.12,0.166,1.455,1.798,1.744,2.3c1.948,3.381,4.226,0.521,4.228-0.05 c0.004-0.959-2.598-0.708-2.986-1.125C35.625,30.792,33.417,29.667,33.028,30.084z"/><path d="M30.128,33c-0.622,0,2.379,4.043,5.383,4.976c0.604,0.187,1.502-0.782,1.502-1.555 s-0.88-1.555-1.502-1.555C32.507,34.866,30.754,33,30.128,33z"/><path d="M32.037,27.823c0,0.482,1.64,1.455,2.682,1.455c1.042,0,2.484,2.91,3.278,1.164 c0.183-0.401-1.788-4.075-2.583-3.347C34.53,27.904,32.037,27.34,32.037,27.823z"/><path d="M26,20c0,0,4.556-5.723,6.429-7.223C34.416,11.185,35,12.532,35,12.532s0,0-0.234,2.081 C34.603,16.07,31.511,17.08,26,20z"/><path d="M26,21.221l6.509-3.193c0,0,5.909-0.48,5.467,2.555c-0.13,0.894,0.13,1.277-3.124,1.405 S26,21.221,26,21.221z"/><path d="M36.594,12.809c-0.385,0.603-1.219,2.816-1.219,2.816s2.58-0.341,3.165-0.759 c0.651-0.465,1.97-1.174,1.224-2.1C39.178,12.038,37.286,11.726,36.594,12.809z"/><path d="M39,8.573c0,0.362,1.944,0.409,2.533,0.409S43,9.098,43,8.737S42.122,8,41.533,8S39,8.211,39,8.573z"/><path d="M39,10.986c0,0.726,0.566,0.986,1.263,0.986c0.698,0,1.737,0.233,1.737-0.493S40.961,10,40.263,10 C39.566,10,39,10.26,39,10.986z"/><path d="M14,17.25c0,0-2.942,0.735-3.556,0.735C9.831,17.985,9,17.143,9,16.595S9.831,16,10.444,16 C11.058,16,14,17.25,14,17.25z"/><path d="M22,20c0,0-4.556-5.723-6.429-7.223C13.584,11.185,13,12.532,13,12.532s0,0,0.234,2.081 C13.397,16.07,16.489,17.08,22,20z"/><path d="M22,21.221l-6.509-3.193c0,0-5.909-0.48-5.467,2.555c0.13,0.894-0.13,1.277,3.124,1.405 S22,21.221,22,21.221z"/><path d="M11.406,12.809c0.385,0.603,1.219,2.816,1.219,2.816s-2.58-0.341-3.165-0.759 c-0.651-0.465-1.97-1.174-1.224-2.1C8.822,12.038,10.714,11.726,11.406,12.809z"/><path d="M9,8.573c0,0.362-1.944,0.409-2.533,0.409S5,9.098,5,8.737S5.878,8,6.467,8S9,8.211,9,8.573z"/><path d="M9,10.986c0,0.726-0.566,0.986-1.263,0.986S6,12.204,6,11.478S7.039,10,7.737,10S9,10.26,9,10.986z"/></g><path d="M26,22.831c0-0.895-0.602-1.992-1.146-2.801C24.945,19.828,25,19.594,25,19.341 c0-0.741-0.448-1.342-1-1.342s-1,0.601-1,1.342c0,0.253,0.055,0.487,0.146,0.689C22.602,20.839,22,21.936,22,22.831 c0,1.248,0.525,4.039,1.267,5.282C23.101,31.029,23,33.869,23,34.104c0,0.494,0.448,0.895,1,0.895s1-0.401,1-0.895 c0-0.235-0.101-3.075-0.267-5.991C25.475,26.869,26,24.079,26,22.831z" fill="#212121"/></svg>
